X:0638
T:The white Cockade.
M:2/4
L:1/16
Q:1/4=104
I: :: ::
Z:Jack Campin * www.campin.me.uk * 2009
K:G
GA|B2B2 B2AG|B2B2 B2ge|d2B2         B2AG    |F2A2 A2\
GA|B2B2 B2AG|A2B2 g2fg|(.b.a.g.f) (.a.g.f.e)|d2B2`B2:|
Bc|d2B2`g2B2|d2B2 B2cd|d2B2`````````g2B2    |a2A2 A2\
GA|B2B2 B2AG|A2B2 g2fg|(.b.a.g.f) (.e.f.g.e)|d2B2`B2:|
<end>
<start>
